src/assets/icon-private.svg

<svg xmlns="http://www.w3.org/2000/svg" width="40" height="40" viewBox="0 0 40 40">
  <g fill="none" fill-rule="evenodd" transform="translate(7 2)">
    <path stroke="#FFF" stroke-linecap="round" stroke-linejoin="round" stroke-width="2" d="M8,11.4617957 C8.21884233,11.3605139 7.96955118,11.5506776 8.19970133,11.4617957 C9.60559755,10.9188517 11.2043241,10.6129032 12.7741935,10.6129032 L13.3548387,10.6129032 C20.0891495,10.6129032 25.5483871,16.0721408 25.5483871,22.8064516 C25.5483871,29.5407624 20.0891495,35 13.3548387,35 L12.7741935,35 C6.03988273,35 0.580645161,29.5407624 0.580645161,22.8064516 C0.580645161,19.2780261 2.07932055,16.0996351 4.47484371,13.873106"/>
    <line x1="12.948" x2="12.948" y1="21.978" y2="26.937" stroke="#FFF" stroke-linecap="round" stroke-width="2"/>
    <path stroke="#FFF" stroke-width="2" d="M13.8963871 21.6481935C13.8963871 22.1736774 13.4742581 22.5963871 12.9493548 22.5963871 12.4267742 22.5963871 12 22.1736774 12 21.6481935 12 21.1227097 12.4267742 20.7 12.9493548 20.7 13.4742581 20.7 13.8963871 21.1227097 13.8963871 21.6481935zM4.5 13.9525629L4.50105211 8.76269179C4.47737963 4.24633583 8.00984033.523763646 12.3497958.500111391L13.5670875.500111391C17.907043.476684057 21.4763275 4.15162921 21.5 8.66798517L21.5 13.5"/>
    <path stroke="#FFF" stroke-width="2" d="M8,11.6235962 L8,8.421422 C8,5.78208471 10.1411951,3.62359619 12.7593866,3.62359619 L13.2406134,3.62359619 C15.8588049,3.62359619 18,5.78208471 18,8.421422 L18,11.3838129"/>
    <path fill="#FFF" d="M13.203929,22.5963161 C12.6813484,22.5963161 12.2545742,22.1736065 12.2545742,21.6481226 C12.2545742,21.1226387 12.6813484,20.699929 13.203929,20.699929 C13.7288323,20.699929 14.1509613,21.1226387 14.1509613,21.6481226 C14.1509613,22.1736065 13.7288323,22.5963161 13.203929,22.5963161 Z"/>
  </g>
</svg>

<?xml version="1.0" encoding="UTF-8"?>
<svg viewBox="0 0 40 40" xmlns="http://www.w3.org/2000/svg">
<g transform="translate(7 2)" fill="none" fill-rule="evenodd">
<path d="m8 11.462c0.21884-0.10128-0.030449 0.088882 0.1997 0 1.4059-0.54294 3.0046-0.84889 4.5745-0.84889h0.58065c6.7343 0 12.194 5.4592 12.194 12.194s-5.4592 12.194-12.194 12.194h-0.58065c-6.7343 0-12.194-5.4592-12.194-12.194 0-3.5284 1.4987-6.7068 3.8942-8.9333" stroke="#FFF" stroke-linecap="round" stroke-linejoin="round" stroke-width="2"/>
<line x1="12.948" x2="12.948" y1="21.978" y2="26.937" stroke="#FFF" stroke-linecap="round" stroke-width="2"/>
<path d="m13.896 21.648c0 0.52548-0.42213 0.94819-0.94703 0.94819-0.52258 0-0.94935-0.42271-0.94935-0.94819 0-0.52548 0.42677-0.94819 0.94935-0.94819 0.5249 0 0.94703 0.42271 0.94703 0.94819zm-9.3964-7.6956 0.0010521-5.1899c-0.023672-4.5164 3.5088-8.2389 7.8487-8.2626h1.2173c4.34-0.023427 7.9092 3.6515 7.9329 8.1679v4.832" stroke="#FFF" stroke-width="2"/>
<path d="m8 11.624v-3.2022c0-2.6393 2.1412-4.7978 4.7594-4.7978h0.48123c2.6182 0 4.7594 2.1585 4.7594 4.7978v2.9624" stroke="#FFF" stroke-width="2"/>
<path d="m13.204 22.596c-0.52258 0-0.94935-0.42271-0.94935-0.94819s0.42677-0.94819 0.94935-0.94819c0.5249 0 0.94703 0.42271 0.94703 0.94819s-0.42213 0.94819-0.94703 0.94819z" fill="#FFF"/>
</g>
</svg>
